X:60
T:Galway Hornpipe, The
C:Joe Buchanan's Scottish Tome - Page 241.2-242.1
I:241 2
Z:Carl Allison
R:Hornpipe
L:1/8
M:4/4
K:D
(FE) | "D"D2 (F>A)  d>AF>D   | "A7"C>DE>F    G2 (F>E) | 
"D"D2(F>A) d>cd>f | "E7"((3efe) ((3dcB) "A7"((3ABA) ((3GFE) | 
"D"D2 (F>A)  d>AF>D   | "A7"C>DE>F    G2 (F>G) |
"D"A>dc>B "A7"((3ABA) ((3GFE) | "D"D2 F2 D2 :|
(d>f)  | "D"f>ef>e "F#7"f>ed>c | "Bm"B>AB>c B2 (c>d) |
"E7"e>de>f e>dc>B | "A7"((3ABA) (c>e) a2 ((3ABc) |
"D"d>cd>e f>dA>F | "G"G>FG>A "E7"B>dc>B |
"D"A>dc>B "A7"((3ABA) ((3GFE) | "D"D2 F2 D2 :|

